X:23
T:Royal Exchange
M:6/8
L:1/8
B:Thompson's Compleat Collection of 200 Favourite Country Dances, vol. 1 (London, 1757)
Z:Transcribed and edited by Fynnian Titford-Mock, 2007
Z:abc's:AK/Fiddler's Companion
K:G
G3 d3|BAG FDF|G3 d3|BGB AFA|BGB AFA|BAG FE^C|D3 d3:|
d3 a3|fdf e^ce|d3 a3|fdf e^ce|(g2e) (f2d)|e^c2 d2b|agf ed^c|(d3 d/)=c/B/A/G/F/|
G3 d3|BGB AFA|G3 d3|BGB AFA|BGB AFA|BGB ABc|BAG DGF|G3 g3||

